packages/foundations/assets/icons/functional/images/transportation/car_28.svg

<svg width="28" height="28" viewBox="0 0 28 28" fill="none" xmlns="http://www.w3.org/2000/svg">
<g clip-path="url(#clip0_187_879)">
<path fill-rule="evenodd" clip-rule="evenodd" d="M14.0001 4.375C15.8281 4.37523 17.6561 4.44908 19.4841 4.59656C20.5942 4.68454 21.5812 5.38287 21.9145 6.41664L23.2156 11.4048H25.4038C25.8523 11.4048 26.1975 11.7164 26.2445 12.1483L26.25 13.0953C26.25 13.5438 25.9369 13.9395 25.5054 13.9938L24.4956 13.9999C24.4956 14.516 24.4607 15.1888 24.391 16.0184C24.3212 16.8479 24.2363 17.6552 24.1364 18.4401C24.0806 19.0166 23.893 19.5079 23.5925 19.8924C23.6011 19.9202 23.6119 19.9978 23.6251 20.1251V21.9088C23.6251 22.3439 23.6251 23.5786 21.7912 23.6232L20.3718 23.625C18.5124 23.625 18.3959 22.4168 18.3787 22.0655L18.3759 21.3142C17.6652 21.3716 16.193 21.4304 14.0037 21.4368C11.8144 21.4432 9.72879 21.3466 9.62455 21.3397L9.62506 21.9088C9.62506 22.3439 9.62455 23.6232 7.79121 23.6232L6.37176 23.625C4.39588 23.625 4.39588 22.4168 4.37869 22.0655L4.37506 20.1251C4.37506 20.0791 4.38871 19.9929 4.416 19.8667C4.15141 19.5349 3.97119 19.1279 3.89384 18.6547C3.80547 17.8093 3.71809 16.9988 3.6317 16.2232C3.50212 15.0598 3.49388 14.1376 3.50212 13.9993L2.59619 14.0001C2.11319 14.0001 1.75006 13.5783 1.75006 13.0953V12.2203C1.75006 11.7364 2.11319 11.3751 2.59619 11.3751H4.79156L6.03855 6.58217C6.3204 5.45476 7.29348 4.72816 8.53116 4.59549C10.3491 4.4485 12.172 4.375 14.0001 4.375ZM6.12498 20.8368L6.12506 21.8751H7.87506L7.87436 21.1678C7.51106 21.1345 6.92794 21.0241 6.12498 20.8368ZM21.8739 20.8155C21.259 20.9375 20.6854 21.037 20.1253 21.1178L20.1251 21.8751H21.8751L21.8739 20.8155ZM14.0001 12.9515C11.5459 12.9511 9.09178 13.009 6.6377 13.1251C5.77 13.1592 5.46823 13.3009 5.34729 13.6106C5.27996 13.7831 5.24988 14.1313 5.25706 14.6554L7.10859 14.8818C7.58811 14.9418 7.92824 15.3791 7.8683 15.8586C7.81265 16.3039 7.4316 16.629 6.99352 16.6251L5.41456 16.4334L5.60812 18.2716C5.64763 18.68 5.79691 18.9047 6.26846 19.0641C7.43771 19.3933 10.1074 19.6906 13.9996 19.6868C17.8918 19.6831 19.6387 19.4873 21.7811 19.0491C22.1348 18.9767 22.3157 18.7956 22.3805 18.3823L22.5882 16.4334L21.1086 16.6183C20.6291 16.6783 20.1918 16.3381 20.1318 15.8586C20.0762 15.4133 20.3655 15.0045 20.791 14.9003L22.7514 14.6554C22.752 14.3206 22.7189 13.8368 22.6493 13.6457C22.5307 13.3202 22.2577 13.1694 21.5283 13.1274C18.9636 13.0105 16.4542 12.9519 14.0001 12.9515ZM17.2813 15.3126C17.6734 15.3126 18.0128 15.5724 18.1208 15.9407L18.3632 17.3562C18.4426 17.8329 18.1206 18.2837 17.6439 18.3632C17.2013 18.4369 16.7809 18.1646 16.6595 17.7436L16.5393 17.0626H11.4599L11.3632 17.6439C11.2805 18.1397 10.7988 18.4369 10.3562 18.3632C9.91359 18.2894 9.60431 17.8954 9.626 17.4578L9.85572 16.0437C9.92018 15.657 10.2323 15.3649 10.6133 15.3189L17.2813 15.3126ZM14.0001 6.12578C12.2265 6.12524 10.4528 6.19623 8.67907 6.33877C8.21147 6.38924 7.88918 6.60274 7.76539 6.91726L6.59931 11.3751C9.06608 11.2594 11.5329 11.2016 13.9996 11.2016C16.4664 11.2016 18.9332 11.2594 21.3999 11.3751L20.2638 7.00661C20.1759 6.65501 19.8021 6.37725 19.362 6.34222C17.561 6.19853 15.7736 6.12638 14.0001 6.12578Z" fill="#1A1C1F"/>
</g>
<defs>
<clipPath id="clip0_187_879">
<rect width="28" height="28" fill="white"/>
</clipPath>
</defs>
</svg>

<svg xmlns="http://www.w3.org/2000/svg" width="28" height="28" fill="none"><g clip-path="url(#a)"><path fill="#1A1C1F" fill-rule="evenodd" d="M14 4.375q2.742 0 5.484.222c1.11.088 2.097.786 2.43 1.82l1.302 4.988h2.188c.448 0 .794.311.84.743l.006.947c0 .449-.313.845-.745.899l-1.01.006q0 .774-.104 2.018-.105 1.245-.255 2.422c-.055.577-.243 1.068-.543 1.452q.012.042.032.233v1.784c0 .435 0 1.67-1.834 1.714l-1.42.002c-1.859 0-1.975-1.208-1.992-1.56l-.003-.75c-.71.057-2.183.115-4.372.122s-4.275-.09-4.38-.097l.001.569c0 .435 0 1.714-1.834 1.714l-1.42.002c-1.975 0-1.975-1.208-1.992-1.56l-.004-1.94q0-.069.041-.258a2.6 2.6 0 0 1-.522-1.212q-.133-1.269-.262-2.432c-.13-1.163-.138-2.085-.13-2.224L2.596 14c-.483 0-.846-.422-.846-.905v-.875c0-.484.363-.845.846-.845h2.196l1.247-4.793C6.32 5.455 7.293 4.728 8.53 4.595a68 68 0 0 1 5.47-.22M6.125 20.837v1.038h1.75v-.707q-.546-.05-1.75-.331m15.749-.021a34 34 0 0 1-1.749.302v.757h1.75zM14 12.952q-3.681 0-7.362.173c-.868.034-1.17.176-1.29.486q-.102.258-.09 1.044l1.85.227a.875.875 0 0 1-.114 1.743l-1.58-.192.194 1.839c.04.408.189.633.66.792 1.17.33 3.84.627 7.732.623s5.639-.2 7.781-.638c.354-.072.535-.253.6-.667l.207-1.949-1.48.185a.875.875 0 0 1-.317-1.718l1.96-.245c.001-.334-.032-.818-.102-1.01-.118-.325-.391-.476-1.12-.518A166 166 0 0 0 14 12.951m3.281 2.36c.392 0 .732.26.84.629l.242 1.415a.875.875 0 0 1-1.703.388l-.12-.681h-5.08l-.097.58a.885.885 0 0 1-1.007.72.875.875 0 0 1-.73-.905l.23-1.414a.875.875 0 0 1 .757-.725zm-3.28-9.186q-2.661 0-5.322.213c-.468.05-.79.264-.914.578L6.6 11.375a158 158 0 0 1 14.8 0l-1.135-4.368c-.088-.352-.462-.63-.902-.665A68 68 0 0 0 14 6.126" clip-rule="evenodd"/></g><defs><clipPath id="a"><path fill="#fff" d="M0 0h28v28H0z"/></clipPath></defs></svg>
